home-silo-outline.svg

<svg fill="currentColor" viewBox="0 0 24 24"><path d="M20 21h-3v-2h3zm0-4h-3v-2h3zm0-4h-3v-2h3zm4-5.2C23.6 4.5 20.8 2 17.5 2c-1.7 0-3.4.7-4.6 1.9-.7.7-1.2 1.4-1.5 2.3L15.6 9H22v13h2zM13.3 7c.6-1.8 2.3-3 4.2-3s3.6 1.2 4.2 3zM7.5 6 0 11v11h15V11zM13 20h-3v-6H5v6H2v-8l5.5-3.5L13 12z"/></svg>

<svg  viewBox="0 0 24 24" fill="currentColor"><path  d="M20 21H17V19H20V21M20 17H17V15H20V17M20 13H17V11H20V13M24 7.8C23.6 4.5 20.8 2 17.5 2C15.8 2 14.1 2.7 12.9 3.9C12.2 4.6 11.7 5.3 11.4 6.2L15.6 9H22V22H24V7.8M13.3 7C13.9 5.2 15.6 4 17.5 4S21.1 5.2 21.7 7H13.3M7.5 6L0 11V22H15V11L7.5 6M13 20H10V14H5V20H2V12L7.5 8.5L13 12V20Z"/></svg>
